img/svg/mailing-icons/mail-to-ico.svg

<svg width="22" height="22" viewBox="0 0 22 22" fill="none" xmlns="http://www.w3.org/2000/svg">
<path d="M7.48749 20.2812H2.60785C2.24094 20.2812 2.01972 20.0765 1.92035 19.9545C1.74898 19.7436 1.68268 19.4694 1.73841 19.2017C2.63085 14.9149 6.41395 11.7845 10.7813 11.683C10.8538 11.6857 10.9267 11.6875 11 11.6875C14.2222 11.6875 16.8438 9.06607 16.8438 5.84375C16.8438 2.62143 14.2222 0 11 0C7.7777 0 5.15627 2.62143 5.15627 5.84375C5.15627 7.7562 6.07976 9.45715 7.50428 10.5238C6.19927 10.9533 4.97466 11.6215 3.90279 12.5031C1.93781 14.1194 0.571539 16.3739 0.055746 18.8514C-0.10589 19.6277 0.0878048 20.4249 0.586981 21.0389C1.08364 21.6497 1.82032 22 2.60785 22H7.48749C7.962 22 8.34687 21.6153 8.34687 21.1406C8.34687 20.666 7.962 20.2812 7.48749 20.2812ZM6.87502 5.84375C6.87502 3.56926 8.72536 1.71875 11 1.71875C13.2745 1.71875 15.125 3.56926 15.125 5.84375C15.125 8.08568 13.3272 9.91554 11.0975 9.96758C11.0655 9.96388 11.0331 9.96153 11 9.96153C10.9329 9.96153 10.8659 9.96254 10.7989 9.96371C8.61744 9.85864 6.87502 8.05093 6.87502 5.84375ZM19.8625 13.2344H12.8366C11.6581 13.2344 10.6992 14.1933 10.6992 15.3717V19.8626C10.6992 21.0411 11.6581 22 12.8366 22H19.8625C21.0411 22 22 21.0411 22 19.8626V15.3717C22 14.1933 21.0411 13.2344 19.8625 13.2344ZM19.791 14.9531L16.5064 16.9955C16.3699 17.0802 16.2006 17.0802 16.0641 16.9955L12.7851 14.9566C12.802 14.9545 12.8191 14.9531 12.8366 14.9531H19.791ZM19.8625 20.2812H12.8366C12.6058 20.2812 12.4178 20.0934 12.4178 19.8626V16.7523L15.1566 18.4551C15.5047 18.6714 15.8949 18.7797 16.2852 18.7797C16.6754 18.7797 17.0658 18.6714 17.4139 18.4551L20.2813 16.6722V19.8626C20.2813 20.0934 20.0933 20.2812 19.8625 20.2812Z" fill="#4C51CC"/>
</svg>

<svg width="22" height="22" fill="none" xmlns="http://www.w3.org/2000/svg"><path d="M7.487 20.281h-4.88a.874.874 0 01-.687-.326.898.898 0 01-.182-.753c.893-4.287 4.676-7.418 9.043-7.519a5.85 5.85 0 006.063-5.84A5.85 5.85 0 0011 0a5.85 5.85 0 00-5.844 5.844c0 1.912.924 3.613 2.348 4.68a11.166 11.166 0 00-3.601 1.98A11.212 11.212 0 00.056 18.85 2.61 2.61 0 002.608 22h4.88a.86.86 0 000-1.719zM6.875 5.844A4.13 4.13 0 0111 1.719a4.13 4.13 0 014.125 4.125 4.13 4.13 0 01-4.027 4.124.846.846 0 00-.098-.006c-.067 0-.134 0-.201.002a4.13 4.13 0 01-3.924-4.12zm12.988 7.39h-7.026a2.14 2.14 0 00-2.138 2.138v4.49A2.14 2.14 0 0012.837 22h7.026A2.14 2.14 0 0022 19.863v-4.491a2.14 2.14 0 00-2.137-2.138zm-.072 1.72l-3.285 2.041a.417.417 0 01-.442 0l-3.279-2.038a.416.416 0 01.052-.004h6.954zm.072 5.327h-7.026a.42.42 0 01-.42-.418v-3.11l2.74 1.702c.348.216.738.325 1.128.325.39 0 .78-.109 1.129-.325l2.867-1.783v3.19a.42.42 0 01-.418.42z" fill="#4C51CC"/></svg>
